src/images/server_status/ic-warning.svg

<?xml version="1.0" encoding="UTF-8"?>
<svg width="32px" height="32px" viewBox="0 0 32 32" version="1.1" xmlns="http://www.w3.org/2000/svg" xmlns:xlink="http://www.w3.org/1999/xlink">
    <!-- Generator: Sketch 49.2 (51160) - http://www.bohemiancoding.com/sketch -->
    <title>icons/server status/ic-warning</title>
    <desc>Created with Sketch.</desc>
    <defs></defs>
    <g id="icons/server-status/ic-warning" stroke="none" stroke-width="1" fill="none" fill-rule="evenodd">
        <path d="M5.29289322,16.7071068 C4.90236893,16.3165825 4.90236893,15.6834175 5.29289322,15.2928932 L15.2928932,5.29289322 C15.6834175,4.90236893 16.3165825,4.90236893 16.7071068,5.29289322 L26.7071068,15.2928932 C27.0976311,15.6834175 27.0976311,16.3165825 26.7071068,16.7071068 L16.7071068,26.7071068 C16.3165825,27.0976311 15.6834175,27.0976311 15.2928932,26.7071068 L5.29289322,16.7071068 Z M7.41421356,16 L16,24.5857864 L24.5857864,16 L16,7.41421356 L7.41421356,16 Z" id="diamond" fill="#FFFFFF" fill-rule="nonzero"></path>
        <path d="M16,11 C16.5522847,11 17,11.4477153 17,12 L17,17 C17,17.5522847 16.5522847,18 16,18 C15.4477153,18 15,17.5522847 15,17 L15,12 C15,11.4477153 15.4477153,11 16,11 Z M16,21 C15.4477153,21 15,20.5522847 15,20 C15,19.4477153 15.4477153,19 16,19 C16.5522847,19 17,19.4477153 17,20 C17,20.5522847 16.5522847,21 16,21 Z" id="exclamation" fill="#FFFFFF"></path>
    </g>
</svg>

<svg width="32" height="32" xmlns="http://www.w3.org/2000/svg"><g fill="#FFF" fill-rule="evenodd"><path d="M5.293 16.707a1 1 0 0 1 0-1.414l10-10a1 1 0 0 1 1.414 0l10 10a1 1 0 0 1 0 1.414l-10 10a1 1 0 0 1-1.414 0l-10-10zM7.414 16L16 24.586 24.586 16 16 7.414 7.414 16z" fill-rule="nonzero"/><path d="M16 11a1 1 0 0 1 1 1v5a1 1 0 0 1-2 0v-5a1 1 0 0 1 1-1zm0 10a1 1 0 1 1 0-2 1 1 0 0 1 0 2z"/></g></svg>
